X:17828
T:Tripping up the Stairs
M:6/8
L:1/8
R:Jig
K:D maj
|:A|FAA GBB|FAd fed|cBc ABc|dfe dAG|FAA GBB|FAd fed|cBc ABc|dfed2:|:c
|dBB fBB|dBd fed|cAA eAA|efe ecA|dBB fBB|dBd fed|cBc ABc|dfed2:|
